X:125
T:Cook in the Kitchen, The
M:6/8
L:1/8
Q:120
R:Jig (Key of G)
K:Gmaj
"G"D2G GAG | "F"=FDE =F2E | "G"D2G GFG | "D"A2d cAG |
"G"D2G GAG | "F"=FDE =F2d | "D"cAG FGA |1 "G"BGF G2=F :|2 "G"BGF G2A|:
"G"~B3 BAG | "D"~A3 AGF | "C"~G3 GFG | "D"A2d cAG |
"G"~B3 BAG | "D"ABA A2d | "G"cAG FGA |1 "D"BGF "G"G2A :|2 "D"BGF "G"G2B |:
"D"d2e f2g | a2g fed | "Am"cAG FGA | "G"BAB cBA |
"D"d2e f2g | a2g fed | "Am"cAG FGA |1 "G"BGF G2B :|2 "G"BGF G2=F |]
